public/images/hashed/51f1bc6cbc54eee82d96bbc52b449cf7.svg

<?xml version="1.0" encoding="UTF-8"?>
<svg width="80px" height="80px" viewBox="0 0 80 80" version="1.1" xmlns="http://www.w3.org/2000/svg" xmlns:xlink="http://www.w3.org/1999/xlink">
    <!-- Generator: Sketch 64 (93537) - https://sketch.com -->
    <title>Icon-Architecture/64/Arch_Amazon-Detective_64</title>
    <desc>Created with Sketch.</desc>
    <defs>
        <linearGradient x1="0%" y1="100%" x2="100%" y2="0%" id="linearGradient-1">
            <stop stop-color="#BD0816" offset="0%"></stop>
            <stop stop-color="#FF5252" offset="100%"></stop>
        </linearGradient>
    </defs>
    <g id="Icon-Architecture/64/Arch_Amazon-Detective_64" stroke="none" stroke-width="1" fill="none" fill-rule="evenodd">
        <g id="Icon-Architecture-BG/64/Security-Identity-Compliance" fill="url(#linearGradient-1)">
            <rect id="Rectangle" x="0" y="0" width="80" height="80"></rect>
        </g>
        <path d="M26.72,27.0951612 C28.792,27.5711612 31.371,28.4241612 34.048,29.3101612 C37.611,30.4901612 41.294,31.7091612 43.002,31.7091612 C44.71,31.7091612 48.393,30.4901612 51.954,29.3101612 C54.631,28.4241612 57.209,27.5711612 59.281,27.0951612 L55.873,24.8201612 C53.607,25.6761612 45.403,28.7091612 43.002,28.7091612 C40.602,28.7091612 32.395,25.6761612 30.127,24.8201612 L26.72,27.0951612 Z M31.448,23.1791612 C35.599,24.7301612 41.428,26.7091612 43.002,26.7091612 C44.574,26.7091612 50.387,24.7351612 54.535,23.1861612 L49.364,14.3471612 C49.164,14.0291612 48.707,13.9181612 48.361,14.1281612 L44.416,16.4941612 C43.543,17.0171612 42.461,17.0171612 41.588,16.4941612 L37.644,14.1281612 C37.28,13.9081612 36.795,14.0151612 36.543,14.1571612 L31.448,23.1791612 Z M52.84,31.1241612 C52.755,31.1521612 52.669,31.1801612 52.583,31.2091612 C48.7,32.4941612 45.032,33.7091612 43.002,33.7091612 C40.972,33.7091612 37.304,32.4941612 33.419,31.2091612 C33.333,31.1801612 33.246,31.1521612 33.16,31.1231612 C34.066,35.9421612 39.021,43.7091612 43.002,43.7091612 C46.982,43.7091612 51.935,35.9431612 52.84,31.1241612 L52.84,31.1241612 Z M23.043,27.9991612 C22.915,27.5771612 23.078,27.1221612 23.445,26.8771612 L29.252,22.9991612 L34.907,12.9891612 C34.961,12.8911612 35.033,12.8041612 35.116,12.7311612 C35.918,12.0231612 37.439,11.6701612 38.673,12.4131612 L42.617,14.7791612 C42.854,14.9221612 43.151,14.9211612 43.387,14.7791612 L47.331,12.4131612 C48.607,11.6481612 50.287,12.0521612 51.074,13.3131612 L56.741,22.9941612 L62.556,26.8771612 C62.922,27.1221612 63.085,27.5771612 62.957,27.9991612 C62.829,28.4211612 62.441,28.7091612 62,28.7091612 C60.533,28.7091612 57.848,29.4951612 54.964,30.4281612 C54.47,36.1221612 48.409,45.7091612 43.002,45.7091612 C37.592,45.7091612 31.531,36.1211612 31.036,30.4281612 C28.153,29.4951612 25.466,28.7091612 24,28.7091612 C23.56,28.7091612 23.171,28.4211612 23.043,27.9991612 L23.043,27.9991612 Z M58.655,47.5881612 L59.743,46.3781612 C59.928,46.1731612 60.02,45.9021612 59.997,45.6271612 C59.975,45.3531612 59.84,45.1001612 59.625,44.9281612 L54.625,40.9281612 L53.375,42.4901612 L57.548,45.8271612 L49.257,55.0401612 C49.07,55.2481612 48.978,55.5271612 49.005,55.8061612 C49.032,56.0851612 49.176,56.3401612 49.401,56.5091612 L52.597,58.9071612 L47.202,66.0431612 L48.798,67.2491612 L54.798,59.3121612 C54.958,59.1001612 55.028,58.8321612 54.991,58.5691612 C54.953,58.3061612 54.813,58.0681612 54.6,57.9091612 L51.475,55.5651612 L57.028,49.3951612 C61.413,49.4891612 66,54.2231612 66,58.7091612 L66,67.7091612 L68,67.7091612 L68,58.7091612 C68,53.6991612 63.529,48.6191612 58.655,47.5881612 L58.655,47.5881612 Z M37.85,63.3941612 L31.928,57.4451612 C31.389,58.1711612 30.765,58.8281612 30.061,59.3931612 L35.956,65.2851612 C36.453,65.7831612 37.283,65.7631612 37.805,65.2411612 C38.325,64.7201612 38.346,63.8921612 37.85,63.3941612 L37.85,63.3941612 Z M23.5,59.7091612 C28.187,59.7091612 32,55.8961612 32,51.2091612 C32,46.5221612 28.187,42.7091612 23.5,42.7091612 C18.814,42.7091612 15,46.5221612 15,51.2091612 C15,55.8961612 18.814,59.7091612 23.5,59.7091612 L23.5,59.7091612 Z M39.268,61.9831612 C40.539,63.2611612 40.518,65.3561612 39.219,66.6551612 C38.561,67.3141612 37.698,67.6451612 36.84,67.6451612 C36.003,67.6451612 35.173,67.3311612 34.542,66.7001612 L28.351,60.5121612 C26.899,61.2731612 25.25,61.7091612 23.5,61.7091612 C17.71,61.7091612 13,56.9981612 13,51.2091612 C13,45.4191612 17.71,40.7091612 23.5,40.7091612 C29.29,40.7091612 34,45.4191612 34,51.2091612 C34,52.8071612 33.631,54.3181612 32.989,55.6761612 L39.268,61.9831612 Z M48.292,46.9941612 L43.002,52.2941612 L37.707,46.9941612 L36.293,48.4071612 L42.295,54.4151612 C42.483,54.6031612 42.737,54.7091612 43.002,54.7091612 C43.268,54.7091612 43.523,54.6031612 43.71,54.4151612 L49.708,48.4071612 L48.292,46.9941612 Z M58,67.7091612 L60,67.7091612 L60,60.7091612 L58,60.7091612 L58,67.7091612 Z" id="Amazon-Detective_Icon_64_Squid" fill="#FFFFFF"></path>
    </g>
</svg>

<svg xmlns="http://www.w3.org/2000/svg" width="80" height="80"><defs><linearGradient id="a" x1="0%" x2="100%" y1="100%" y2="0%"><stop offset="0%" stop-color="#BD0816"/><stop offset="100%" stop-color="#FF5252"/></linearGradient></defs><g fill="none" fill-rule="evenodd"><path fill="url(#a)" d="M0 0h80v80H0z"/><path fill="#FFF" d="M26.72 27.095c2.072.476 4.651 1.33 7.328 2.215 3.563 1.18 7.246 2.4 8.954 2.4 1.708 0 5.391-1.22 8.952-2.4 2.677-.886 5.255-1.739 7.327-2.215l-3.408-2.275c-2.266.856-10.47 3.89-12.871 3.89-2.4 0-10.607-3.034-12.875-3.89l-3.407 2.275Zm4.728-3.916c4.151 1.551 9.98 3.53 11.554 3.53 1.572 0 7.385-1.974 11.533-3.523l-5.171-8.839c-.2-.318-.657-.429-1.003-.219l-3.945 2.366a2.745 2.745 0 0 1-2.828 0l-3.944-2.366c-.364-.22-.849-.113-1.101.03l-5.095 9.021Zm21.392 7.945-.257.085c-3.883 1.285-7.551 2.5-9.581 2.5-2.03 0-5.698-1.215-9.583-2.5l-.259-.086c.906 4.82 5.861 12.586 9.842 12.586 3.98 0 8.933-7.766 9.838-12.585ZM23.043 28a1 1 0 0 1 .402-1.122L29.252 23l5.655-10.01a.967.967 0 0 1 .209-.258c.802-.708 2.323-1.06 3.557-.318l3.944 2.366a.747.747 0 0 0 .77 0l3.944-2.366a2.761 2.761 0 0 1 3.743.9l5.667 9.681 5.815 3.883A1 1 0 0 1 62 28.71c-1.467 0-4.152.786-7.036 1.72-.494 5.693-6.555 15.28-11.962 15.28-5.41 0-11.471-9.588-11.966-15.28-2.883-.934-5.57-1.72-7.036-1.72a1 1 0 0 1-.957-.71Zm35.612 19.59 1.088-1.21a.996.996 0 0 0-.118-1.45l-5-4-1.25 1.561 4.173 3.337-8.291 9.213a1 1 0 0 0 .144 1.469l3.196 2.398-5.395 7.136 1.596 1.206 6-7.937a1.002 1.002 0 0 0-.198-1.403l-3.125-2.344 5.553-6.17C61.413 49.49 66 54.223 66 58.71v9h2v-9c0-5.01-4.471-10.09-9.345-11.12ZM37.85 63.393l-5.922-5.949a10.57 10.57 0 0 1-1.867 1.948l5.895 5.892c.497.498 1.327.478 1.849-.044.52-.52.541-1.349.045-1.847ZM23.5 59.71c4.687 0 8.5-3.813 8.5-8.5 0-4.687-3.813-8.5-8.5-8.5-4.686 0-8.5 3.813-8.5 8.5 0 4.687 3.814 8.5 8.5 8.5Zm15.768 2.274c1.271 1.278 1.25 3.373-.049 4.672a3.357 3.357 0 0 1-2.379.99 3.232 3.232 0 0 1-2.298-.945l-6.191-6.188A10.42 10.42 0 0 1 23.5 61.71C17.71 61.71 13 57 13 51.21s4.71-10.5 10.5-10.5S34 45.42 34 51.21a10.42 10.42 0 0 1-1.011 4.467l6.279 6.307Zm9.024-14.989-5.29 5.3-5.295-5.3-1.414 1.413 6.002 6.008a1 1 0 0 0 1.415 0l5.998-6.008-1.416-1.413ZM58 67.71h2v-7h-2v7Z"/></g></svg>
